X: 1
T: Wals
C: Andy Cutting
R: waltz
Z: 2019 John Chambers <jc:trillian.mit.edu>
S: NEFFA 2019 French Jam handout p.10 #1
M: 3/4
L: 1/8
Q: 1/4=130
K: Em
"A"|:\
"Em"B4 B2 | "D"A2 d3  c | "Em"B4 B2 | "D"A2 G2 F2 |\
"Em"E4 E2 | "D"F2 E2 D2 | "Em"E6 |1 "Em"B,E GB, EG :|2 "Em"E6 |]
"B"|:\
"Em"B2 AG AB | "Am"c4 G2 | "D"F3 G A2 | "G"B4 F2 |\
"C"E3 F G2 | "Am"A4 G2 |1 "D"F2 d3 c | "Em"B6 :|2 "D"F2 E2 D2 | "Em"E6 |]
